X:1
T:Watch and Pray
T:Watch and Pray
T:Robert Lowry
T:Robert Lowry, 1867
T:Public Domain Courtesy of the Cyber Hymnal™
T:Public Domain Courtesy of the Cyber Hymnal™
C:Robert Lowry
Z:Public Domain
Z:Courtesy of the Cyber Hymnal™
%%score ( 1 2 ) ( 3 4 )
L:1/8
Q:1/4=105
M:4/4
K:F
V:1 treble 
V:2 treble 
V:3 bass 
V:4 bass 
V:1
 [FA]2 [FA]>[FA] (A>G) (A>B) | (c4 d4) | [Fc]2 [FA]>[FG] F2 (G>A) | [EG]8 | %4
w: 1.~Watch, for the time * is *|short; *|Watch, while ’tis called to- *|day;|
w: 2.~Chase slum- ber from * thine *|eyes; *|Chase doubt- ing from thy *|breast;|
w: 3.~Take Je- sus for * thy *|trust; *|Watch, watch for- ev- er- *|more;|
 [FA]2 [FA]>[FA] (A>G) (A>B) | (c4 d4) | [Ec]2 [EG]>[Ec] [Ge]2 [Fd]2 | [Ec]8 | %8
w: Watch, lest the world * pre- *|vail, *|Watch, Chris- tian, watch and|pray;|
w: Thine is the prom- * ised *|prize *|Of Heav’n’s e- ter- nal|rest;|
w: Watch, for thou soon * must *|sleep *|With thou- sands gone be-|fore;|
 [EG]2 [EG]>[FA] [GB]2 ([FA][EG]) | ([FA]4 [Ac]4) | [Bd]2 [Bd]>[Bd] [Ac]2 ([Ac][FA]) | [EG]8 | %12
w: Watch, for the flesh is *|weak; *|Watch, for the foe is *|strong;|
w: Watch, Chris- tian, watch and *|pray; *|Thy Sav- ior watched for *|thee;|
w: Now, when thy sun is *|up, *|Now, while ’tis called to- *|day,|
 [FA]2 [FA]>[FA] (A>G) (A>B) | (c4 d4) | [Ac]2 [FA]>[EG] F2 (G>A) | F6 ||"^Refrain" [Fc]2 | %17
w: Watch, lest the Bride- * groom *|come; *|Watch, tho’ He tar- ry *|long.||
w: Till from His brow * there *|poured *|Great drops of ag- o- *|ny.|O,|
w: Now is ac- cept- * ed *|time; *|Watch, Chris- tian, watch and *|pray.||
 c4 z z A2 z d2 z | c4 z z A2 z d2 z | c4 z z B2 z A2 z | A4 z z G2 z (cA) | %21
w: ||||
w: watch and pray,|O watch and|pray, O, watch|and pray, O *|
w: ||||
 [FA]2 [FA]>[FA] ([FA]>[EG]) [FA]>[EB] | [Fc]2 [Bd]>[Bd] [Af]4 | (cd) ([Fc][GB]) [FA]2 [EG]2 | %24
w: |||
w: watch and pray; O, * watch in|the dark- ness, And|watch * in * the day;|
w: |||
 F8 |] %25
w: |
w: Chris-|
w: |
V:2
 x4 F2 F2 | F8 | x4 F2 F2 | x8 | x4 F2 F2 | F8 | x8 | x8 | x8 | x8 | x8 | x8 | x4 F2 F2 | F8 | %14
 x4 F2 F2 | F6 || x2 | FFFF x8 | FFFF x8 | GGGF x8 | FFE E2 x6 | x8 | x8 | F2 x6 | F8 |] %25
V:3
 [F,C]2 [F,C]>[F,C] [F,C]2 [F,C]2 | ([F,A,]4 B,4) | [F,A,]2 [F,C]>[F,B,] [F,A,]2 [D,=B,]2 | %3
 [C,C]8 | [F,C]2 [F,C]>[F,C] [F,C]2 [F,C]2 | ([A,,C]4 [B,,B,]4) | [C,G,]2 [C,G,]>[C,G,] G,2 G,2 | %7
 [C,G,]8 | [C,C]2 [C,C]>[C,C] [C,C]2 [C,C]2 | [F,C]8 | [B,F]2 [B,F]>[B,F] [F,F]2 [F,C]2 | [C,C]8 | %12
 [F,C]2 [F,C]>[F,C] [F,C]2 [F,C]2 | ([F,A,]4 [B,,B,]4) | [C,F,]2 [C,C]>[C,B,] [C,A,]2 (B,>C) | %15
 [F,A,]6 || [F,A,]2 | [F,A,] z [F,C] z [F,C] z [F,B,] z x4 | [F,A,] z [F,C] z [F,C] z [F,B,] z x4 | %19
 [E,G,] z [E,C] z [E,C] z [E,C] z x4 | [C,C] z [E,C] z [E,C] z [C,C]2 x3 | %21
 [F,C]2 [F,C]>[F,C] C2 [F,C]>[G,C] | [A,F]2 [B,F]>[G,C] [F,C]4 | %23
 ([F,A,][G,B,]) ([A,C][B,D]) C2 [C,B,]2 | [F,A,]8 |] %25
V:4
 x8 | x4 (B,,2 D,2) | x8 | x8 | x8 | x8 | x4 G,2 G,2 | x8 | x8 | x8 | x8 | x8 | x8 | x8 | x6 C,2 | %15
 x6 || x2 | x12 | x12 | x12 | x11 | x4 (F,>C,) x2 | x8 | x4 C2 x2 | x8 |] %25

